X:60
T:Beanfield
M:2/4
L:1/8
Q:1/4=170
C:Jon Swayne
R:Bourree
K:C
GddG | eeGf | g>fe_B | a>gf_B | GddG | eeGf | g>fe_B | A4 :|
K:G
dBBe | ccfd | dgee | a>gfA | dBBe | ccfd | dge>d | c4 :|
<end>
<start>
